X:1
T:Planxty Mary Fahey
L:1/8
Q:1/4=120
M:6/8
K:D
B2 ^f ed^c | d3 F2 E | D2 d BAF | A4 de | 
fed edc | Bcd F2 E | DB,A, DEF | A4 FA | 
B2 A FBB | BAB cde | d2 A def | e2 a a2 g | 
fed edc | Bcd F2 E | DB,A, DEF |1 A4 FA :|2 A4 Bc |
|: dBB B2 A |  B/c/dc BAF | AFD AFD | ECA, ECA, | 
dBB B2 A | B/c/dc BAF | dAF def | ecA efg | 
fba fed | eag fec | dBf dBf | cAf edc | 
dcB cBA | Bcd F2 E | DB,A, DEF |1 A4 Bc :|2 A4 FA |] 


